Newaita-dark/apps/22/com.github.torikulhabib.mindi.svg

<svg height="22pt" viewBox="0 0 22 22" width="22pt" xmlns="http://www.w3.org/2000/svg" xmlns:xlink="http://www.w3.org/1999/xlink"><linearGradient id="a"><stop offset="0" stop-opacity=".313725"/><stop offset=".222222" stop-opacity=".27451"/><stop offset="1" stop-opacity="0"/></linearGradient><radialGradient id="b" cx="450.90894" cy="189.57936" gradientTransform="matrix(.00000012 -.0537161 -.0966889 -.00000007 22.878135 43.721792)" gradientUnits="userSpaceOnUse" r="21.166656" xlink:href="#a"/><radialGradient id="c" cx="450.90894" cy="189.57936" gradientTransform="matrix(-.00000012 .0537161 .0966889 .00000007 -13.327416 -5.175142)" gradientUnits="userSpaceOnUse" r="21.166656" xlink:href="#a"/><radialGradient id="d" cx="450.90894" cy="189.57936" gradientTransform="matrix(-.00000012 -.0537161 .0966889 -.00000007 -13.327416 43.721792)" gradientUnits="userSpaceOnUse" r="21.166656" xlink:href="#a"/><radialGradient id="e" cx="450.90894" cy="189.57936" gradientTransform="matrix(.00000012 .0537161 -.0966889 .00000007 22.878134 -5.175142)" gradientUnits="userSpaceOnUse" r="21.166656" xlink:href="#a"/><linearGradient id="f" gradientUnits="userSpaceOnUse" x1="10.9151166" x2="10.9151166" y1="19.27333515" y2="1.99106705676"><stop offset="0" stop-color="#9ccc65"/><stop offset="1" stop-color="#aed581"/></linearGradient><linearGradient id="g" gradientUnits="userSpaceOnUse" x1="8.79139333554" x2="8.79139333554" y1="15.10662996839" y2="6.95424472313"><stop offset="0" stop-color="#424242"/><stop offset="1" stop-color="#616161"/></linearGradient><path d="m4.773438 19.273438h1.820312v-.910157h-1.820312zm0 0" fill="url(#b)"/><path d="m4.773438 19.273438h-1.816407v.910156h1.816407zm0 0" fill="url(#c)"/><path d="m4.773438 19.273438h-1.816407v-.910157h1.816407zm0 0" fill="url(#d)"/><path d="m4.773438 19.273438h1.820312v.910156h-1.820312zm0 0" fill="url(#e)"/><path d="m5.007812 1.992188c-.0625 0-.121093.003906-.179687.011718-.007813 0-.019531 0-.027344.003906-.003906 0-.011719 0-.015625 0s-.007812 0-.011718.003907c-.59375.097656-1.050782.578125-1.125 1.175781 0 .011719-.003907.019531-.003907.027344-.003906.058594-.007812.117187-.007812.175781v14.519531.007813c-.003907.242187.054687.492187.183593.71875.378907.652343 1.210938.875 1.867188.5l12.601562-7.277344c.445313-.257813.691407-.726563.683594-1.203125.007813-.480469-.238281-.949219-.683594-1.203125l-12.550781-7.246094c-.148437-.097656-.316406-.164062-.5-.195312-.011719-.003907-.019531-.003907-.03125-.003907-.066406-.011718-.132812-.015624-.199219-.015624zm0 0" fill="url(#f)"/><path d="m5.007812 1.992188c-.0625 0-.121093.003906-.179687.011718-.007813 0-.019531 0-.027344.003906-.003906 0-.011719 0-.015625 0s-.007812 0-.011718.003907c-.59375.097656-1.050782.578125-1.125 1.175781 0 .011719-.003907.019531-.003907.027344-.003906.058594-.007812.117187-.007812.175781v.167969c.003906-.039063.003906-.074219.007812-.113282 0-.011718.003907-.019531.003907-.027343.074218-.601563.53125-1.078125 1.125-1.179688.003906 0 .007812 0 .011718-.003906h.015625c.007813-.003906.019531-.003906.027344-.003906.058594-.007813.117187-.011719.179687-.011719.066407 0 .132813.003906.199219.015625.011719 0 .019531.003906.03125.003906.183594.03125.351563.097657.5.195313l12.550781 7.246094c.410157.238281.652344.652343.679688 1.089843.003906-.039062.003906-.078125.003906-.113281.007813-.480469-.238281-.949219-.683594-1.203125l-12.550781-7.246094c-.148437-.097656-.316406-.164062-.5-.195312-.011719-.003907-.019531-.003907-.03125-.003907-.066406-.011718-.132812-.015624-.199219-.015624zm-1.371093 15.9375v.046874zm0 0" fill="#fff" fill-opacity=".392157"/><path d="m3.636719 3.332031v.058594zm15.324219 7.117188c-.054688.402343-.289063.777343-.671876 1l-12.601562 7.273437c-.65625.378906-1.488281.15625-1.867188-.496094-.117187-.210937-.179687-.4375-.183593-.660156v.34375.007813c-.003907.242187.054687.492187.183593.71875.378907.652343 1.210938.875 1.867188.5l12.601562-7.277344c.445313-.257813.691407-.726563.683594-1.203125 0-.070312-.003906-.140625-.011718-.207031zm-15.324219 7.050781v.019531c0-.003906 0-.007812 0-.011719 0-.003906 0-.007812 0-.007812zm0 0" fill-opacity=".235294"/><path d="m5.007812 1.925781c-.0625 0-.125.003907-.1875.011719-.011718 0-.019531.003906-.03125.003906-.003906 0-.007812.003906-.011718.003906s-.011719 0-.015625 0c-.621094.105469-1.101563.605469-1.175781 1.234376-.003907.011718-.003907.019531-.003907.03125-.007812.058593-.007812.121093-.007812.179687v14.519531.007813c-.007813.253906.054687.511719.191406.75.394531.683593 1.269531.917969 1.953125.523437l12.601562-7.277344c.46875-.269531.722657-.757812.714844-1.257812.007813-.503906-.246094-.992188-.714844-1.261719l-12.546874-7.242187c-.15625-.101563-.332032-.171875-.523438-.203125-.011719-.003907-.023438-.003907-.03125-.007813-.070312-.007812-.140625-.015625-.210938-.015625zm0 .128907c.0625 0 .125.003906.191407.015624.007812 0 .019531.003907.027343.003907.175782.03125.335938.09375.480469.1875l12.550781 7.246093c.425782.246094.65625.691407.648438 1.144532v.003906c.007812.457031-.222656.902344-.648438 1.144531l-12.605468 7.277344c-.625.363281-1.414063.148437-1.773438-.476563-.125-.214843-.183594-.449218-.175781-.683593 0-.003907 0-.007813 0-.007813v-14.523437c0-.054688 0-.109375.007813-.164063 0-.007812 0-.015625 0-.027344.070312-.570312.507812-1.027343 1.070312-1.121093.007812 0 .011719 0 .015625-.003907h.011719c.007812 0 .019531-.003906.027344-.003906.058593-.007812.113281-.011718.171874-.011718zm0 0" fill="#212121"/><path d="m7.503906 6.953125c-.28125 0-.507812.265625-.507812.59375v5.0625c-.160156-.046875-.328125-.070313-.507813-.070313-.84375 0-1.523437.566407-1.523437 1.269532s.679687 1.269531 1.523437 1.269531 1.523438-.566406 1.523438-1.269531v-5.585938c0-.140625.113281-.253906.253906-.253906h2.539063c.140624 0 .253906.113281.253906.253906v2.863282c-.160156-.046876-.332032-.070313-.507813-.070313-.84375 0-1.523437.566406-1.523437 1.269531s.679687 1.269532 1.523437 1.269532 1.523438-.566407 1.523438-1.269532v-4.738281c0-.328125-.226563-.59375-.507813-.59375zm0 0" fill="url(#g)"/><path d="m7.503906 6.953125c-.28125 0-.507812.265625-.507812.59375v.226563c0-.328126.226562-.59375.507812-.59375h4.0625c.28125 0 .507813.265624.507813.59375v-.226563c0-.328125-.226563-.59375-.507813-.59375zm3.046875 4.0625c-.84375 0-1.523437.566406-1.523437 1.269531 0 .039063 0 .074219.003906.113282.070312-.648438.722656-1.15625 1.519531-1.15625.175781 0 .347657.027343.507813.070312v-.226562c-.160156-.046876-.332032-.070313-.507813-.070313zm-4.0625 1.523437c-.84375 0-1.523437.566407-1.523437 1.269532 0 .035156.003906.074218.007812.113281.066406-.652344.71875-1.15625 1.515625-1.15625.179688 0 .347657.023437.507813.070313v-.226563c-.160156-.046875-.328125-.070313-.507813-.070313zm0 0" fill="#fff" fill-opacity=".392157"/><path d="m8.265625 7.96875c-.140625 0-.253906.113281-.253906.253906v.339844c0-.140625.113281-.253906.253906-.253906h2.539063c.140624 0 .253906.113281.253906.253906v-.339844c0-.140625-.113282-.253906-.253906-.253906zm3.808594 4.316406c0 .703125-.679688 1.269532-1.523438 1.269532-.773437 0-1.410156-.476563-1.511719-1.101563-.007812.058594-.011718.113281-.011718.171875 0 .703125.679687 1.269531 1.523437 1.269531s1.523438-.566406 1.523438-1.269531zm-4.0625 1.523438c0 .703125-.679688 1.269531-1.523438 1.269531-.773437 0-1.410156-.480469-1.507812-1.101563-.011719.058594-.015625.113282-.015625.171876 0 .703124.679687 1.269531 1.523437 1.269531s1.523438-.566407 1.523438-1.269531zm0 0" fill-opacity=".235294"/><path d="m174.619688-53.19727c-6.544829 0-11.817053 6.181228-11.817053 13.816863v117.806932c-3.726917-1.090805-7.635635-1.636208-11.817053-1.636208-19.634489 0-35.45116 13.18056-35.45116 29.542634 0 16.362073 15.816671 29.542633 35.45116 29.542633 19.634488 0 35.45116-13.18056 35.45116-29.542633v-129.987587c0-3.272415 2.636112-5.908527 5.908526-5.908527h59.085267c3.272415 0 5.908527 2.636112 5.908527 5.908527v66.630001c-3.726917-1.090805-7.726535-1.636208-11.817054-1.636208-19.634488 0-35.45116 13.18056-35.45116 29.542634 0 16.362073 15.816672 29.542633 35.45116 29.542633 19.634489 0 35.45116-13.18056 35.45116-29.542633v-110.262198c0-7.635635-5.272223-13.816863-11.817053-13.816863zm0 0" fill="none" stroke="#212121" stroke-linecap="round" stroke-width="3" transform="matrix(.0429729 0 0 .0429729 0 9.239163)"/></svg>

<?xml version="1.0" encoding="UTF-8"?>
<svg xmlns="http://www.w3.org/2000/svg" xmlns:xlink="http://www.w3.org/1999/xlink" width="22pt" height="22pt" viewBox="0 0 22 22" version="1.1">
<defs>
<radialGradient id="radial0" gradientUnits="userSpaceOnUse" cx="450.90894" cy="189.57936" fx="450.90894" fy="189.57936" r="21.166656" gradientTransform="matrix(0.000000119742,-0.0537161,-0.0966889,-0.0000000698078,22.878135,43.721792)">
<stop offset="0" style="stop-color:rgb(0%,0%,0%);stop-opacity:0.313725;"/>
<stop offset="0.222222" style="stop-color:rgb(0%,0%,0%);stop-opacity:0.27451;"/>
<stop offset="1" style="stop-color:rgb(0%,0%,0%);stop-opacity:0;"/>
</radialGradient>
<radialGradient id="radial1" gradientUnits="userSpaceOnUse" cx="450.90894" cy="189.57936" fx="450.90894" fy="189.57936" r="21.166656" gradientTransform="matrix(-0.000000119742,0.0537161,0.0966889,0.0000000698078,-13.327416,-5.175142)">
<stop offset="0" style="stop-color:rgb(0%,0%,0%);stop-opacity:0.313725;"/>
<stop offset="0.222222" style="stop-color:rgb(0%,0%,0%);stop-opacity:0.27451;"/>
<stop offset="1" style="stop-color:rgb(0%,0%,0%);stop-opacity:0;"/>
</radialGradient>
<radialGradient id="radial2" gradientUnits="userSpaceOnUse" cx="450.90894" cy="189.57936" fx="450.90894" fy="189.57936" r="21.166656" gradientTransform="matrix(-0.000000119742,-0.0537161,0.0966889,-0.0000000698078,-13.327416,43.721792)">
<stop offset="0" style="stop-color:rgb(0%,0%,0%);stop-opacity:0.313725;"/>
<stop offset="0.222222" style="stop-color:rgb(0%,0%,0%);stop-opacity:0.27451;"/>
<stop offset="1" style="stop-color:rgb(0%,0%,0%);stop-opacity:0;"/>
</radialGradient>
<radialGradient id="radial3" gradientUnits="userSpaceOnUse" cx="450.90894" cy="189.57936" fx="450.90894" fy="189.57936" r="21.166656" gradientTransform="matrix(0.000000119742,0.0537161,-0.0966889,0.0000000698078,22.878134,-5.175142)">
<stop offset="0" style="stop-color:rgb(0%,0%,0%);stop-opacity:0.313725;"/>
<stop offset="0.222222" style="stop-color:rgb(0%,0%,0%);stop-opacity:0.27451;"/>
<stop offset="1" style="stop-color:rgb(0%,0%,0%);stop-opacity:0;"/>
</radialGradient>
<linearGradient id="linear0" gradientUnits="userSpaceOnUse" x1="254" y1="233.5" x2="254" y2="-168.66667" gradientTransform="matrix(0.0429729,0,0,0.0429729,0,9.239163)">
<stop offset="0" style="stop-color:rgb(61.176471%,80%,39.607843%);stop-opacity:1;"/>
<stop offset="1" style="stop-color:rgb(68.235294%,83.529412%,50.588235%);stop-opacity:1;"/>
</linearGradient>
<linearGradient id="linear1" gradientUnits="userSpaceOnUse" x1="981.43005" y1="1457.5077" x2="981.43005" y2="815.11719" gradientTransform="matrix(0.0126907,0,0,0.0126907,-3.663641,-3.390163)">
<stop offset="0" style="stop-color:rgb(25.882353%,25.882353%,25.882353%);stop-opacity:1;"/>
<stop offset="1" style="stop-color:rgb(38.039216%,38.039216%,38.039216%);stop-opacity:1;"/>
</linearGradient>
</defs>
<g id="surface1">
<path style=" stroke:none;fill-rule:nonzero;fill:url(#radial0);" d="M 4.773438 19.273438 L 6.59375 19.273438 L 6.59375 18.363281 L 4.773438 18.363281 Z M 4.773438 19.273438 "/>
<path style=" stroke:none;fill-rule:nonzero;fill:url(#radial1);" d="M 4.773438 19.273438 L 2.957031 19.273438 L 2.957031 20.183594 L 4.773438 20.183594 Z M 4.773438 19.273438 "/>
<path style=" stroke:none;fill-rule:nonzero;fill:url(#radial2);" d="M 4.773438 19.273438 L 2.957031 19.273438 L 2.957031 18.363281 L 4.773438 18.363281 Z M 4.773438 19.273438 "/>
<path style=" stroke:none;fill-rule:nonzero;fill:url(#radial3);" d="M 4.773438 19.273438 L 6.59375 19.273438 L 6.59375 20.183594 L 4.773438 20.183594 Z M 4.773438 19.273438 "/>
<path style=" stroke:none;fill-rule:nonzero;fill:url(#linear0);" d="M 5.007812 1.992188 C 4.945312 1.992188 4.886719 1.996094 4.828125 2.003906 C 4.820312 2.003906 4.808594 2.003906 4.800781 2.007812 C 4.796875 2.007812 4.789062 2.007812 4.785156 2.007812 C 4.78125 2.007812 4.777344 2.007812 4.773438 2.011719 C 4.179688 2.109375 3.722656 2.589844 3.648438 3.1875 C 3.648438 3.199219 3.644531 3.207031 3.644531 3.214844 C 3.640625 3.273438 3.636719 3.332031 3.636719 3.390625 L 3.636719 17.910156 C 3.636719 17.910156 3.636719 17.914062 3.636719 17.917969 C 3.632812 18.160156 3.691406 18.410156 3.820312 18.636719 C 4.199219 19.289062 5.03125 19.511719 5.6875 19.136719 L 18.289062 11.859375 C 18.734375 11.601562 18.980469 11.132812 18.972656 10.65625 C 18.980469 10.175781 18.734375 9.707031 18.289062 9.453125 L 5.738281 2.207031 C 5.589844 2.109375 5.421875 2.042969 5.238281 2.011719 C 5.226562 2.007812 5.21875 2.007812 5.207031 2.007812 C 5.140625 1.996094 5.074219 1.992188 5.007812 1.992188 Z M 5.007812 1.992188 "/>
<path style=" stroke:none;fill-rule:nonzero;fill:rgb(100%,100%,100%);fill-opacity:0.392157;" d="M 5.007812 1.992188 C 4.945312 1.992188 4.886719 1.996094 4.828125 2.003906 C 4.820312 2.003906 4.808594 2.003906 4.800781 2.007812 C 4.796875 2.007812 4.789062 2.007812 4.785156 2.007812 C 4.78125 2.007812 4.777344 2.007812 4.773438 2.011719 C 4.179688 2.109375 3.722656 2.589844 3.648438 3.1875 C 3.648438 3.199219 3.644531 3.207031 3.644531 3.214844 C 3.640625 3.273438 3.636719 3.332031 3.636719 3.390625 L 3.636719 3.558594 C 3.640625 3.519531 3.640625 3.484375 3.644531 3.445312 C 3.644531 3.433594 3.648438 3.425781 3.648438 3.417969 C 3.722656 2.816406 4.179688 2.339844 4.773438 2.238281 C 4.777344 2.238281 4.78125 2.238281 4.785156 2.234375 C 4.789062 2.234375 4.796875 2.234375 4.800781 2.234375 C 4.808594 2.230469 4.820312 2.230469 4.828125 2.230469 C 4.886719 2.222656 4.945312 2.21875 5.007812 2.21875 C 5.074219 2.21875 5.140625 2.222656 5.207031 2.234375 C 5.21875 2.234375 5.226562 2.238281 5.238281 2.238281 C 5.421875 2.269531 5.589844 2.335938 5.738281 2.433594 L 18.289062 9.679688 C 18.699219 9.917969 18.941406 10.332031 18.96875 10.769531 C 18.972656 10.730469 18.972656 10.691406 18.972656 10.65625 C 18.980469 10.175781 18.734375 9.707031 18.289062 9.453125 L 5.738281 2.207031 C 5.589844 2.109375 5.421875 2.042969 5.238281 2.011719 C 5.226562 2.007812 5.21875 2.007812 5.207031 2.007812 C 5.140625 1.996094 5.074219 1.992188 5.007812 1.992188 Z M 3.636719 17.929688 C 3.636719 17.945312 3.636719 17.960938 3.636719 17.976562 Z M 3.636719 17.929688 "/>
<path style=" stroke:none;fill-rule:nonzero;fill:rgb(0%,0%,0%);fill-opacity:0.235294;" d="M 3.636719 3.332031 C 3.636719 3.351562 3.636719 3.371094 3.636719 3.390625 Z M 18.960938 10.449219 C 18.90625 10.851562 18.671875 11.226562 18.289062 11.449219 L 5.6875 18.722656 C 5.03125 19.101562 4.199219 18.878906 3.820312 18.226562 C 3.703125 18.015625 3.640625 17.789062 3.636719 17.566406 L 3.636719 17.910156 C 3.636719 17.910156 3.636719 17.914062 3.636719 17.917969 C 3.632812 18.160156 3.691406 18.410156 3.820312 18.636719 C 4.199219 19.289062 5.03125 19.511719 5.6875 19.136719 L 18.289062 11.859375 C 18.734375 11.601562 18.980469 11.132812 18.972656 10.65625 C 18.972656 10.585938 18.96875 10.515625 18.960938 10.449219 Z M 3.636719 17.5 L 3.636719 17.519531 C 3.636719 17.515625 3.636719 17.511719 3.636719 17.507812 C 3.636719 17.503906 3.636719 17.5 3.636719 17.5 Z M 3.636719 17.5 "/>
<path style=" stroke:none;fill-rule:nonzero;fill:rgb(12.941176%,12.941176%,12.941176%);fill-opacity:1;" d="M 5.007812 1.925781 C 4.945312 1.925781 4.882812 1.929688 4.820312 1.9375 C 4.808594 1.9375 4.800781 1.941406 4.789062 1.941406 C 4.785156 1.941406 4.78125 1.945312 4.777344 1.945312 C 4.773438 1.945312 4.765625 1.945312 4.761719 1.945312 C 4.140625 2.050781 3.660156 2.550781 3.585938 3.179688 C 3.582031 3.191406 3.582031 3.199219 3.582031 3.210938 C 3.574219 3.269531 3.574219 3.332031 3.574219 3.390625 L 3.574219 17.910156 C 3.574219 17.914062 3.574219 17.914062 3.574219 17.917969 C 3.566406 18.171875 3.628906 18.429688 3.765625 18.667969 C 4.160156 19.351562 5.035156 19.585938 5.71875 19.191406 L 18.320312 11.914062 C 18.789062 11.644531 19.042969 11.15625 19.035156 10.65625 C 19.042969 10.152344 18.789062 9.664062 18.320312 9.394531 L 5.773438 2.152344 C 5.617188 2.050781 5.441406 1.980469 5.25 1.949219 C 5.238281 1.945312 5.226562 1.945312 5.21875 1.941406 C 5.148438 1.933594 5.078125 1.925781 5.007812 1.925781 Z M 5.007812 2.054688 C 5.070312 2.054688 5.132812 2.058594 5.199219 2.070312 C 5.207031 2.070312 5.21875 2.074219 5.226562 2.074219 C 5.402344 2.105469 5.5625 2.167969 5.707031 2.261719 L 18.257812 9.507812 C 18.683594 9.753906 18.914062 10.199219 18.90625 10.652344 L 18.90625 10.65625 C 18.914062 11.113281 18.683594 11.558594 18.257812 11.800781 L 5.652344 19.078125 C 5.027344 19.441406 4.238281 19.226562 3.878906 18.601562 C 3.753906 18.386719 3.695312 18.152344 3.703125 17.917969 C 3.703125 17.914062 3.703125 17.910156 3.703125 17.910156 L 3.703125 3.386719 C 3.703125 3.332031 3.703125 3.277344 3.710938 3.222656 C 3.710938 3.214844 3.710938 3.207031 3.710938 3.195312 C 3.78125 2.625 4.21875 2.167969 4.78125 2.074219 C 4.789062 2.074219 4.792969 2.074219 4.796875 2.070312 C 4.800781 2.070312 4.804688 2.070312 4.808594 2.070312 C 4.816406 2.070312 4.828125 2.066406 4.835938 2.066406 C 4.894531 2.058594 4.949219 2.054688 5.007812 2.054688 Z M 5.007812 2.054688 "/>
<path style=" stroke:none;fill-rule:nonzero;fill:url(#linear1);" d="M 7.503906 6.953125 C 7.222656 6.953125 6.996094 7.21875 6.996094 7.546875 L 6.996094 12.609375 C 6.835938 12.5625 6.667969 12.539062 6.488281 12.539062 C 5.644531 12.539062 4.964844 13.105469 4.964844 13.808594 C 4.964844 14.511719 5.644531 15.078125 6.488281 15.078125 C 7.332031 15.078125 8.011719 14.511719 8.011719 13.808594 L 8.011719 8.222656 C 8.011719 8.082031 8.125 7.96875 8.265625 7.96875 L 10.804688 7.96875 C 10.945312 7.96875 11.058594 8.082031 11.058594 8.222656 L 11.058594 11.085938 C 10.898438 11.039062 10.726562 11.015625 10.550781 11.015625 C 9.707031 11.015625 9.027344 11.582031 9.027344 12.285156 C 9.027344 12.988281 9.707031 13.554688 10.550781 13.554688 C 11.394531 13.554688 12.074219 12.988281 12.074219 12.285156 L 12.074219 7.546875 C 12.074219 7.21875 11.847656 6.953125 11.566406 6.953125 Z M 7.503906 6.953125 "/>
<path style=" stroke:none;fill-rule:nonzero;fill:rgb(100%,100%,100%);fill-opacity:0.392157;" d="M 7.503906 6.953125 C 7.222656 6.953125 6.996094 7.21875 6.996094 7.546875 L 6.996094 7.773438 C 6.996094 7.445312 7.222656 7.179688 7.503906 7.179688 L 11.566406 7.179688 C 11.847656 7.179688 12.074219 7.445312 12.074219 7.773438 L 12.074219 7.546875 C 12.074219 7.21875 11.847656 6.953125 11.566406 6.953125 Z M 10.550781 11.015625 C 9.707031 11.015625 9.027344 11.582031 9.027344 12.285156 C 9.027344 12.324219 9.027344 12.359375 9.03125 12.398438 C 9.101562 11.75 9.753906 11.242188 10.550781 11.242188 C 10.726562 11.242188 10.898438 11.269531 11.058594 11.3125 L 11.058594 11.085938 C 10.898438 11.039062 10.726562 11.015625 10.550781 11.015625 Z M 6.488281 12.539062 C 5.644531 12.539062 4.964844 13.105469 4.964844 13.808594 C 4.964844 13.84375 4.96875 13.882812 4.972656 13.921875 C 5.039062 13.269531 5.691406 12.765625 6.488281 12.765625 C 6.667969 12.765625 6.835938 12.789062 6.996094 12.835938 L 6.996094 12.609375 C 6.835938 12.5625 6.667969 12.539062 6.488281 12.539062 Z M 6.488281 12.539062 "/>
<path style=" stroke:none;fill-rule:nonzero;fill:rgb(0%,0%,0%);fill-opacity:0.235294;" d="M 8.265625 7.96875 C 8.125 7.96875 8.011719 8.082031 8.011719 8.222656 L 8.011719 8.5625 C 8.011719 8.421875 8.125 8.308594 8.265625 8.308594 L 10.804688 8.308594 C 10.945312 8.308594 11.058594 8.421875 11.058594 8.5625 L 11.058594 8.222656 C 11.058594 8.082031 10.945312 7.96875 10.804688 7.96875 Z M 12.074219 12.285156 C 12.074219 12.988281 11.394531 13.554688 10.550781 13.554688 C 9.777344 13.554688 9.140625 13.078125 9.039062 12.453125 C 9.03125 12.511719 9.027344 12.566406 9.027344 12.625 C 9.027344 13.328125 9.707031 13.894531 10.550781 13.894531 C 11.394531 13.894531 12.074219 13.328125 12.074219 12.625 Z M 8.011719 13.808594 C 8.011719 14.511719 7.332031 15.078125 6.488281 15.078125 C 5.714844 15.078125 5.078125 14.597656 4.980469 13.976562 C 4.96875 14.035156 4.964844 14.089844 4.964844 14.148438 C 4.964844 14.851562 5.644531 15.417969 6.488281 15.417969 C 7.332031 15.417969 8.011719 14.851562 8.011719 14.148438 Z M 8.011719 13.808594 "/>
<path style="fill:none;stroke-width:3;stroke-linecap:round;stroke-linejoin:miter;stroke:rgb(12.941176%,12.941176%,12.941176%);stroke-opacity:1;stroke-miterlimit:4;" d="M 174.619688 -53.19727 C 168.074859 -53.19727 162.802635 -47.016042 162.802635 -39.380407 L 162.802635 78.426525 C 159.075718 77.33572 155.167 76.790317 150.985582 76.790317 C 131.351093 76.790317 115.534422 89.970877 115.534422 106.332951 C 115.534422 122.695024 131.351093 135.875584 150.985582 135.875584 C 170.62007 135.875584 186.436742 122.695024 186.436742 106.332951 L 186.436742 -23.654636 C 186.436742 -26.927051 189.072854 -29.563163 192.345268 -29.563163 L 251.430535 -29.563163 C 254.70295 -29.563163 257.339062 -26.927051 257.339062 -23.654636 L 257.339062 42.975365 C 253.612145 41.88456 249.612527 41.339157 245.522008 41.339157 C 225.88752 41.339157 210.070848 54.519717 210.070848 70.881791 C 210.070848 87.243864 225.88752 100.424424 245.522008 100.424424 C 265.156497 100.424424 280.973168 87.243864 280.973168 70.881791 L 280.973168 -39.380407 C 280.973168 -47.016042 275.700945 -53.19727 269.156115 -53.19727 Z M 174.619688 -53.19727 " transform="matrix(0.0429729,0,0,0.0429729,0,9.239163)"/>
</g>
</svg>
